X:78
T:I Got Rhythm
C:Gershwin
N:TablEdited by Terry G Martin
L:1/8
Q:1/4=140
M:4/4
K:Bb
z8 | z2 Fz zG zz | B2 zc3 z2 | z2 cz zB zz | G2 zF2z3 | z2 Fz zG zz | B2 zc3 z2 | 
c2 dd cd cB | z3z4z | z2 Fz zG zz | B2 zc3 z2 | z2 cz zB zz | G2 zF2z3 | z2 Fz zG zz | 
B2 zc3 z2 | c2 dd cd cB | z8 | z2 d3d3 | d3=e4z | z2 d3d3 | d3G4z | z2 c3c3 | 
c3d4z | z2 c3c3 | c3F4z | z2 Fz zG zz | B2 zc3 z2 | z2 cz zB zz | G2 zF2z3 | z2 Fz zG zz | 
B2 zc3 z2 | c2 dd cd cB | z3z4z | z8 | z8 | 


